static/logos/netlify-glyph-color.svg

<svg width="50" height="50" viewBox="0 0 50 50" fill="none" xmlns="http://www.w3.org/2000/svg">
<g clip-path="url(#clip0_1_1867)">
<path d="M36.1984 17.3558L36.1803 17.3479C36.1697 17.3441 36.1594 17.3401 36.1502 17.3309C36.1353 17.3149 36.1242 17.2956 36.1179 17.2747C36.1115 17.2537 36.1101 17.2314 36.1136 17.2098L37.1213 11.0501L41.8466 15.7761L36.9322 17.8666C36.9187 17.8723 36.904 17.8748 36.8893 17.8745H36.8697C36.8632 17.8706 36.8568 17.8654 36.8437 17.8523C36.6607 17.6488 36.4421 17.4805 36.1984 17.3558ZM43.0524 16.9803L48.1046 22.0322C49.154 23.0826 49.6793 23.6067 49.871 24.214C49.8996 24.304 49.9231 24.3939 49.9414 24.4864L37.867 19.3733C37.8604 19.3707 37.8539 19.3681 37.8473 19.3655C37.7992 19.346 37.7431 19.3238 37.7431 19.2742C37.7431 19.2247 37.8004 19.2014 37.8487 19.1817L37.8642 19.1753L43.0524 16.9803ZM49.7354 26.1078C49.4746 26.5979 48.9662 27.1061 48.106 27.9677L42.4097 33.662L35.0423 32.128L35.0031 32.1201C34.9379 32.1098 34.8688 32.098 34.8688 32.0393C34.8409 31.7355 34.7507 31.4405 34.6037 31.173C34.4569 30.9056 34.2565 30.6712 34.015 30.4844C33.9851 30.4544 33.9929 30.4075 34.0021 30.3645C34.0021 30.3581 34.0021 30.3515 34.0046 30.3463L35.3903 21.8405L35.3955 21.8119C35.4033 21.7468 35.415 21.6712 35.4737 21.6712C35.7707 21.6343 36.0572 21.5386 36.3168 21.3898C36.5764 21.241 36.8039 21.0419 36.9857 20.8044C36.9975 20.7915 37.0053 20.7771 37.021 20.7692C37.0627 20.7497 37.1123 20.7692 37.1553 20.7875L49.7341 26.1078H49.7354ZM41.0996 34.9719L31.7325 44.3378L33.3359 34.4844L33.3385 34.4713C33.3399 34.4584 33.3425 34.4453 33.3464 34.4335C33.3594 34.4023 33.3932 34.3893 33.4258 34.3762L33.4415 34.3697C33.7926 34.22 34.1031 33.989 34.3475 33.6959C34.3787 33.6594 34.4165 33.6242 34.4647 33.6177C34.4774 33.6157 34.49 33.6157 34.5025 33.6177L41.0984 34.9732L41.0996 34.9719ZM29.7499 46.3201L28.6941 47.3759L17.0213 30.5079C17.017 30.5017 17.0126 30.4956 17.0082 30.4896C16.9899 30.4649 16.9703 30.4401 16.9743 30.4114C16.9743 30.3905 16.9886 30.3724 17.003 30.3567L17.0159 30.3398C17.0511 30.2876 17.0812 30.2355 17.1138 30.1794L17.1399 30.1338L17.1437 30.1299C17.162 30.0986 17.1789 30.0686 17.2103 30.0517C17.2376 30.0387 17.2754 30.0439 17.3054 30.0505L30.2374 32.7171C30.2737 32.7227 30.3077 32.7375 30.3365 32.7601C30.3534 32.777 30.3574 32.7953 30.3614 32.8162C30.4516 33.1575 30.6194 33.4732 30.8519 33.7389C31.0844 34.0046 31.3751 34.2128 31.7013 34.3476C31.7379 34.3659 31.7222 34.4062 31.7053 34.4492C31.6967 34.4681 31.6902 34.4878 31.6857 34.5079C31.5228 35.4985 30.1254 44.0198 29.7499 46.3201ZM27.5444 48.5241C26.7662 49.2945 26.3074 49.7024 25.7886 49.8666C25.2771 50.0284 24.7281 50.0284 24.2165 49.8666C23.6092 49.6738 23.0838 49.1497 22.0345 48.0992L10.312 36.3782L13.374 31.63C13.3883 31.6067 13.4027 31.5858 13.4261 31.5689C13.4587 31.5454 13.5056 31.5558 13.5448 31.5689C14.2475 31.7808 15.0021 31.7427 15.68 31.4607C15.7152 31.4476 15.7502 31.4386 15.7777 31.4633C15.7914 31.4758 15.8036 31.4898 15.8141 31.505L27.5444 48.5255V48.5241ZM9.1819 35.2482L6.49277 32.5594L11.8033 30.2942C11.8168 30.2883 11.8315 30.2851 11.8463 30.2851C11.8906 30.2851 11.9167 30.3294 11.9401 30.3698C11.9935 30.4518 12.05 30.5319 12.1096 30.6096L12.1265 30.6305C12.1422 30.6526 12.1317 30.6747 12.1161 30.6956L9.18321 35.2482H9.1819ZM5.30266 31.3694L1.9005 27.9677C1.32174 27.389 0.902011 26.9694 0.610025 26.6082L10.9547 28.7537C10.9677 28.7559 10.9807 28.7582 10.9938 28.7601C11.0576 28.7706 11.128 28.7823 11.128 28.8422C11.128 28.9073 11.0511 28.9373 10.986 28.9622L10.956 28.9751L5.30266 31.3694ZM0.015625 24.8591C0.0274142 24.6401 0.0668312 24.4233 0.132941 24.214C0.32586 23.6067 0.849871 23.0826 1.9005 22.0322L6.25422 17.679C8.25881 20.588 10.2688 23.4931 12.2842 26.3945C12.3194 26.4415 12.3585 26.4936 12.3182 26.5326C12.1278 26.7425 11.9375 26.9719 11.8033 27.2209C11.7887 27.2529 11.7663 27.2806 11.7381 27.3017C11.7211 27.312 11.7029 27.3082 11.6833 27.3043H11.6807L0.015625 24.8579V24.8591ZM7.41955 16.5137L13.271 10.6604C13.8224 10.9016 15.8258 11.7474 17.6156 12.5034C18.9713 13.0768 20.2069 13.5982 20.5955 13.7676C20.6345 13.7833 20.6697 13.7989 20.6867 13.838C20.6972 13.8615 20.6918 13.8914 20.6867 13.9162C20.594 14.3387 20.6078 14.7776 20.7267 15.1935C20.8458 15.6094 21.0662 15.9892 21.3684 16.2988C21.4075 16.3378 21.3684 16.3939 21.3345 16.4421L21.3162 16.4695L15.3723 25.675C15.3566 25.7011 15.3423 25.7233 15.3162 25.7402C15.285 25.7598 15.2406 25.7506 15.2041 25.7416C14.9729 25.6809 14.7353 25.6486 14.4963 25.6451C14.2825 25.6451 14.0505 25.6841 13.8159 25.7271H13.8146C13.7885 25.7311 13.765 25.7363 13.7442 25.7207C13.7212 25.7018 13.7013 25.6794 13.6855 25.6543L7.41826 16.5137H7.41955ZM14.4559 9.47829L22.0345 1.90059C23.0838 0.851389 23.6092 0.326137 24.2165 0.134545C24.7281 -0.0271887 25.2771 -0.0271887 25.7886 0.134545C26.3961 0.326137 26.9214 0.851389 27.9707 1.90059L29.6132 3.54282L24.2231 11.8895C24.2098 11.9138 24.1915 11.9351 24.1696 11.9521C24.1371 11.9742 24.0914 11.9651 24.0524 11.9521C23.6274 11.8231 23.1774 11.7996 22.7414 11.8837C22.3053 11.9677 21.8963 12.1567 21.5496 12.4343C21.5144 12.4708 21.4623 12.4499 21.4179 12.4304C20.7141 12.1241 15.2393 9.81064 14.4559 9.47829ZM30.7575 4.68716L35.7344 9.66336L34.5351 17.0899V17.1094C34.5341 17.1264 34.5306 17.143 34.5248 17.159C34.5117 17.1851 34.4856 17.1902 34.4595 17.198C34.2031 17.2758 33.9617 17.396 33.7452 17.5538C33.7359 17.5605 33.7272 17.568 33.7191 17.5761C33.7048 17.5916 33.6905 17.6059 33.667 17.6085C33.6479 17.6091 33.6289 17.6061 33.6109 17.5995L26.0272 14.3776L26.0129 14.3711C25.9646 14.3515 25.9072 14.3281 25.9072 14.2785C25.8627 13.856 25.7246 13.4486 25.5031 13.086C25.4667 13.026 25.4263 12.9635 25.4575 12.9022L30.7575 4.68716ZM25.6322 15.9038L32.7415 18.9146C32.7806 18.9328 32.8237 18.9497 32.8406 18.9901C32.8473 19.0145 32.8473 19.0401 32.8406 19.0645C32.8197 19.1687 32.8014 19.2873 32.8014 19.4072V19.6067C32.8014 19.6562 32.7507 19.677 32.7037 19.6966L32.6894 19.7018C31.5632 20.1828 16.8778 26.4441 16.8557 26.4441C16.8335 26.4441 16.81 26.4441 16.7879 26.4219C16.7487 26.3828 16.7879 26.328 16.8231 26.2785C16.8293 26.27 16.8354 26.2613 16.8414 26.2524L22.6836 17.2072L22.6941 17.1915C22.728 17.1367 22.7671 17.0756 22.8296 17.0756L22.8883 17.0846C23.0213 17.1029 23.1386 17.1198 23.2572 17.1198C24.1435 17.1198 24.9649 16.6884 25.4601 15.9508C25.4719 15.9311 25.487 15.9134 25.5045 15.8986C25.5397 15.8726 25.5918 15.8855 25.6322 15.9038ZM17.4905 27.8751L33.4976 21.0494C33.4976 21.0494 33.521 21.0495 33.5432 21.0716C33.6306 21.159 33.7048 21.2175 33.7764 21.2724L33.8117 21.2945C33.8443 21.3128 33.8769 21.3335 33.8795 21.3675C33.8795 21.3805 33.8795 21.3884 33.8769 21.4L32.5056 29.8224L32.5004 29.8562C32.4912 29.9213 32.4821 29.9957 32.4208 29.9957C32.0553 30.0204 31.7011 30.1338 31.3894 30.3262C31.0775 30.5184 30.8173 30.784 30.6312 31.0997L30.6246 31.1101C30.6063 31.1401 30.5894 31.1687 30.5595 31.1843C30.5321 31.1974 30.4969 31.1922 30.4682 31.1857L17.703 28.5529C17.6899 28.5503 17.5048 27.8764 17.4905 27.8751Z" fill="url(#paint0_radial_1_1867)"/>
</g>
<defs>
<radialGradient id="paint0_radial_1_1867" cx="0" cy="0" r="1" gradientUnits="userSpaceOnUse" gradientTransform="translate(-1.6606 24.2954) rotate(90) scale(49.9197 57.641)">
<stop stop-color="#20C6B7"/>
<stop offset="1" stop-color="#4D9ABF"/>
</radialGradient>
<clipPath id="clip0_1_1867">
<rect width="50" height="50" fill="white"/>
</clipPath>
</defs>
</svg>

<svg xmlns="http://www.w3.org/2000/svg" width="64" height="64" fill="none" viewBox="0 0 50 50"><g clip-path="url(#a)"><path fill="url(#b)" d="m36.198 17.356-.018-.008a.075.075 0 0 1-.03-.017.143.143 0 0 1-.036-.121l1.007-6.16 4.726 4.726-4.915 2.09a.105.105 0 0 1-.043.009h-.02a.136.136 0 0 1-.025-.023 2.24 2.24 0 0 0-.646-.496Zm6.854-.376 5.053 5.052c1.049 1.05 1.574 1.575 1.766 2.182.029.09.052.18.07.272l-12.074-5.113-.02-.008c-.048-.019-.104-.041-.104-.09 0-.05.057-.074.106-.093l.015-.007 5.188-2.195Zm6.683 9.128c-.26.49-.769.998-1.629 1.86l-5.696 5.694-7.368-1.534-.039-.008c-.065-.01-.134-.022-.134-.08a2.22 2.22 0 0 0-.854-1.556c-.03-.03-.022-.077-.013-.12 0-.006 0-.012.003-.018l1.385-8.506.005-.028c.008-.065.02-.14.079-.14a2.254 2.254 0 0 0 1.512-.868c.012-.012.02-.027.035-.035.042-.02.091 0 .134.019l12.58 5.32ZM41.1 34.972l-9.367 9.366 1.603-9.854.003-.013a.187.187 0 0 1 .007-.037c.013-.032.047-.045.08-.058l.015-.006c.352-.15.662-.381.906-.674.032-.037.07-.072.118-.078a.12.12 0 0 1 .037 0l6.596 1.355.002-.001ZM29.75 46.32l-1.056 1.056-11.673-16.868a.854.854 0 0 0-.013-.018c-.018-.025-.038-.05-.034-.079 0-.02.015-.039.029-.054l.013-.017c.035-.052.065-.105.098-.16l.026-.046.004-.004c.018-.031.035-.061.066-.078.028-.013.065-.008.095-.002l12.932 2.667c.037.006.07.02.1.043.016.017.02.035.024.056a2.29 2.29 0 0 0 1.34 1.532c.037.018.021.058.004.101a.3.3 0 0 0-.02.059c-.162.99-1.56 9.512-1.935 11.812Zm-2.206 2.204c-.778.77-1.237 1.178-1.755 1.343a2.607 2.607 0 0 1-1.573 0c-.607-.193-1.132-.717-2.181-1.768L10.312 36.38l3.062-4.749a.196.196 0 0 1 .052-.061c.033-.024.08-.013.119 0a3.174 3.174 0 0 0 2.135-.108c.035-.013.07-.022.098.002a.245.245 0 0 1 .036.042l11.73 17.02ZM9.182 35.248l-2.69-2.689 5.311-2.265a.108.108 0 0 1 .043-.009c.045 0 .07.044.094.085.053.082.11.162.17.24l.017.02c.015.023.005.045-.01.066l-2.934 4.552h-.001Zm-3.88-3.879-3.401-3.401c-.58-.579-.999-.999-1.291-1.36l10.345 2.146.039.006c.064.01.134.022.134.082 0 .065-.077.095-.142.12l-.03.013-5.653 2.394ZM.017 24.86c.011-.219.05-.436.117-.645.193-.607.717-1.131 1.768-2.182l4.353-4.353c2.005 2.909 4.015 5.814 6.03 8.716.035.047.074.099.034.138-.19.21-.38.439-.515.688a.21.21 0 0 1-.065.08c-.017.011-.035.007-.055.003h-.002L.016 24.858v.001Zm7.404-8.345 5.851-5.854c.551.242 2.555 1.087 4.345 1.843 1.355.574 2.59 1.095 2.98 1.265.038.015.074.03.09.07.011.024.006.053 0 .078a2.611 2.611 0 0 0 .682 2.383c.04.039 0 .095-.034.143l-.018.027-5.944 9.206a.18.18 0 0 1-.056.065c-.031.02-.075.01-.112.002a2.957 2.957 0 0 0-.708-.097c-.213 0-.446.04-.68.082h-.001c-.026.004-.05.01-.07-.006a.277.277 0 0 1-.06-.067l-6.267-9.14h.002Zm7.036-7.036 7.579-7.577C23.084.85 23.609.326 24.216.135a2.608 2.608 0 0 1 1.573 0C26.396.326 26.92.85 27.97 1.9l1.642 1.642-5.39 8.346a.202.202 0 0 1-.053.063c-.033.022-.079.013-.118 0a2.732 2.732 0 0 0-2.502.482c-.036.037-.088.016-.132-.004-.704-.306-6.179-2.62-6.962-2.952Zm16.302-4.79 4.976 4.975-1.199 7.427v.02a.175.175 0 0 1-.01.049c-.013.026-.04.031-.066.039a2.391 2.391 0 0 0-.74.378c-.014.016-.029.03-.052.032a.15.15 0 0 1-.056-.009l-7.584-3.221-.014-.007c-.048-.02-.106-.043-.106-.093a2.863 2.863 0 0 0-.404-1.192c-.036-.06-.077-.123-.046-.184l5.3-8.215Zm-5.126 11.216 7.11 3.01c.039.019.082.036.099.076a.14.14 0 0 1 0 .075c-.021.104-.04.222-.04.342v.2c0 .05-.05.07-.097.09l-.015.005a9859.75 9859.75 0 0 1-15.833 6.742c-.023 0-.046 0-.068-.022-.04-.04 0-.094.035-.143a.861.861 0 0 0 .018-.027l5.843-9.045.01-.015c.034-.055.073-.116.136-.116l.058.009c.133.018.25.035.37.035a2.64 2.64 0 0 0 2.202-1.17.21.21 0 0 1 .044-.051c.036-.026.088-.013.128.005ZM17.49 27.875l16.008-6.826s.023 0 .045.023c.088.087.162.146.233.2l.036.023c.032.018.065.038.068.072 0 .014 0 .021-.003.033l-1.371 8.422-.006.034c-.009.065-.018.14-.08.14a2.253 2.253 0 0 0-1.789 1.104l-.006.01c-.019.03-.036.059-.066.074-.027.013-.062.008-.09.002l-12.766-2.633c-.013-.003-.198-.677-.212-.678Z"/></g><defs><radialGradient id="b" cx="0" cy="0" r="1" gradientTransform="matrix(0 49.9197 -57.641 0 -1.66 24.295)" gradientUnits="userSpaceOnUse"><stop stop-color="#20C6B7"/><stop offset="1" stop-color="#4D9ABF"/></radialGradient><clipPath id="a"><path fill="#fff" d="M0 0h50v50H0z"/></clipPath></defs></svg>
